Delta/places/scalable/folder-games.svg

<svg xmlns="http://www.w3.org/2000/svg" width="192" height="192" viewBox="0 0 192 192">
  <g fill="none" fill-rule="evenodd">
    <rect width="152" height="152" x="20" y="20" fill="#F9DE81" rx="10"/>
    <path fill="#000" fill-opacity=".25" d="M172 55.0690859L172 30.0025173C172 24.4770034 167.52172 20 161.997483 20L30.0025173 20C24.4770034 20 20 24.4782795 20 30.0025173L20 41.8667526C20.5977376 36.877596 24.8600859 33 29.9984742 33L63.5667725 33C72.0254898 33 75.1405393 46.256422 78.9328151 46.256422L161.997289 46.256422C167.120475 46.256422 171.374434 50.1039341 172 55.0690882L172 55.0690859zM93.9265874 114.1725C95.1240345 113.027386 97.0230556 113.06981 98.1681698 114.267258L98.1681698 114.267258 103.16817 119.495763C103.702042 120.054034 104 120.796721 104 121.569176L104 121.569176 104 135C104 136.656854 102.656854 138 101 138L101 138 91 138C89.3431458 138 88 136.656854 88 135L88 135 88 121.569176C88 120.796721 88.2979576 120.054034 88.8318302 119.495763L88.8318302 119.495763 93.8318302 114.267258C93.8627065 114.23497 93.8943001 114.203377 93.9265874 114.1725zM122.116215 101C123.773069 101 125.116215 102.343146 125.116215 104L125.116215 113.941892C125.116215 115.598747 123.773069 116.941892 122.116215 116.941892L108.599531 116.941892C107.831271 116.941892 107.092287 116.647154 106.534904 116.11843L101.294514 111.147484C100.092446 110.007222 100.042341 108.108388 101.182603 106.906319 101.218916 106.868038 101.256233 106.830722 101.294514 106.794409L106.534904 101.823462C107.092287 101.294739 107.831271 101 108.599531 101L122.116215 101zM83.5166841 101C84.2849447 101 85.0239284 101.294739 85.581311 101.823462L85.581311 101.823462 90.8217012 106.794409C90.8599824 106.830722 90.8972989 106.868038 90.9336117 106.906319 92.0738737 108.108388 92.0237697 110.007222 90.8217012 111.147484L90.8217012 111.147484 85.581311 116.11843C85.0239284 116.647154 84.2849447 116.941892 83.5166841 116.941892L83.5166841 116.941892 70 116.941892C68.3431458 116.941892 67 115.598747 67 113.941892L67 113.941892 67 104C67 102.343146 68.3431458 101 70 101L70 101zM101 80C102.656854 80 104 81.3431458 104 83L104 96.4308245C104 97.2032794 103.702042 97.9459659 103.16817 98.5042371L98.1681698 103.732742C97.0230556 104.93019 95.1240345 104.972614 93.9265874 103.8275 93.8943001 103.796623 93.8627065 103.76503 93.8318302 103.732742L88.8318302 98.5042371C88.2979576 97.9459659 88 97.2032794 88 96.4308245L88 83C88 81.3431458 89.3431458 80 91 80L101 80z"/>
  </g>
</svg>

<svg width="192" height="192" version="1.1" viewBox="0 0 192 192" xmlns="http://www.w3.org/2000/svg">
 <rect x="20" y="20" width="152" height="152" rx="10" style="fill-rule:evenodd;fill:#f9de81"/>
 <path d="m172 55.069v-25.067c0-5.5255-4.4783-10.003-10.003-10.003h-131.99c-5.5255 0-10.003 4.4783-10.003 10.003v11.864c0.59774-4.9892 4.8601-8.8668 9.9985-8.8668h33.568c8.4587 0 11.574 13.256 15.366 13.256h83.064c5.1232 0 9.3771 3.8475 10.003 8.8127zm-78.073 59.103c1.1974-1.1451 3.0965-1.1027 4.2416 0.0948l5 5.2285c0.53387 0.55827 0.83183 1.301 0.83183 2.0734v13.431c0 1.6568-1.3432 3-3 3h-10c-1.6569 0-3-1.3432-3-3v-13.431c0-0.77246 0.29796-1.5152 0.83183-2.0734l5-5.2285c0.03088-0.0323 0.06247-0.0639 0.09476-0.0948zm28.19-13.172c1.6569 0 3 1.3432 3 3v9.9419c0 1.6569-1.3431 3-3 3h-13.517c-0.76826 0-1.5072-0.29474-2.0646-0.82346l-5.2404-4.971c-1.2021-1.1403-1.2522-3.0391-0.11191-4.2412 0.0363-0.0383 0.0736-0.0756 0.11191-0.11191l5.2404-4.971c0.55739-0.52872 1.2964-0.82346 2.0646-0.82346zm-38.6 0c0.76826 0 1.5072 0.29474 2.0646 0.82346l5.2404 4.971c0.03828 0.0363 0.0756 0.0736 0.11191 0.11191 1.1403 1.2021 1.0902 3.1009-0.11191 4.2412l-5.2404 4.971c-0.55738 0.52872-1.2964 0.82346-2.0646 0.82346h-13.517c-1.6569 0-3-1.3431-3-3v-9.9419c0-1.6568 1.3431-3 3-3zm17.483-21c1.6568 0 3 1.3431 3 3v13.431c0 0.77246-0.29796 1.5151-0.83183 2.0734l-5 5.2285c-1.1451 1.1974-3.0441 1.2399-4.2416 0.0948-0.03229-0.0309-0.06388-0.0625-0.09476-0.0948l-5-5.2285c-0.53387-0.55827-0.83183-1.301-0.83183-2.0734v-13.431c0-1.6569 1.3431-3 3-3z" style="fill-rule:evenodd;opacity:.25"/>
</svg>
